icons/messenger-line.svg

<svg xmlns="http://www.w3.org/2000/svg" width="24" height="24" fill="none"><g clip-path="url(#a)"><g><path fill="#121212" d="M7.764 19.225C8.354 18.965 9.014 18.916 9.632 19.086C10.402 19.296 11.197 19.402 12 19.4C16.585 19.4 20 16.113 20 11.7C20 7.287 16.585 4 12 4C7.415 4 4 7.287 4 11.7C4 13.97 4.896 15.972 6.466 17.376C6.75126 17.6287 6.98194 17.9369 7.14391 18.2818C7.30589 18.6268 7.39575 19.0011 7.408 19.382L7.764 19.225ZM12 2C17.634 2 22 6.127 22 11.7C22 17.273 17.634 21.4 12 21.4C11.0221 21.4025 10.0484 21.2733 9.105 21.016C8.9278 20.9673 8.73924 20.9811 8.571 21.055L6.587 21.931C6.46713 21.984 6.33608 22.0067 6.20537 21.9972C6.07467 21.9876 5.94831 21.9461 5.8374 21.8763C5.72649 21.8065 5.63444 21.7105 5.56933 21.5967C5.50422 21.483 5.46805 21.355 5.464 21.224L5.409 19.444C5.4054 19.3358 5.37977 19.2294 5.3337 19.1314C5.28762 19.0334 5.22205 18.9458 5.141 18.874C3.195 17.135 2 14.617 2 11.7C2 6.127 6.367 2 12 2ZM5.995 14.537L8.932 9.877C9.0425 9.70155 9.18818 9.55092 9.35984 9.43462C9.53149 9.31831 9.7254 9.23886 9.92931 9.20127C10.1332 9.16368 10.3427 9.16878 10.5445 9.21624C10.7464 9.2637 10.9362 9.35249 11.102 9.477L13.438 11.227C13.5421 11.3056 13.669 11.3481 13.7995 11.3481C13.93 11.3481 14.0569 11.3056 14.161 11.227L17.316 8.831C17.737 8.512 18.287 9.016 18.005 9.464L15.068 14.124C14.9575 14.2994 14.8118 14.4501 14.6402 14.5664C14.4685 14.6827 14.2746 14.7621 14.0707 14.7997C13.8668 14.8373 13.6573 14.8322 13.4555 14.7848C13.2536 14.7373 13.0638 14.6485 12.898 14.524L10.562 12.774C10.4579 12.6954 10.331 12.6529 10.2005 12.6529C10.07 12.6529 9.94313 12.6954 9.839 12.774L6.684 15.169C6.263 15.488 5.713 14.984 5.995 14.536V14.537Z"/></g></g><defs><clipPath id="a"><rect width="24" height="24" fill="white"/></clipPath></defs></svg>

<svg width="24" height="24" fill="none" xmlns="http://www.w3.org/2000/svg"><g clip-path="url(#a)"><path d="M7.764 19.225c.59-.26 1.25-.309 1.868-.139.77.21 1.565.316 2.368.314 4.585 0 8-3.287 8-7.7S16.585 4 12 4s-8 3.287-8 7.7c0 2.27.896 4.272 2.466 5.676a2.8 2.8 0 0 1 .942 2.006l.356-.157ZM12 2c5.634 0 10 4.127 10 9.7 0 5.573-4.366 9.7-10 9.7a10.896 10.896 0 0 1-2.895-.384.8.8 0 0 0-.534.039l-1.984.876a.8.8 0 0 1-1.123-.707l-.055-1.78a.797.797 0 0 0-.268-.57C3.195 17.135 2 14.617 2 11.7 2 6.127 6.367 2 12 2ZM5.995 14.537l2.937-4.66a1.5 1.5 0 0 1 2.17-.4l2.336 1.75a.6.6 0 0 0 .723 0l3.155-2.396c.421-.319.971.185.689.633l-2.937 4.66a1.501 1.501 0 0 1-2.17.4l-2.336-1.75a.6.6 0 0 0-.723 0l-3.155 2.395c-.421.319-.971-.185-.689-.633v.001Z" /></g><defs><clipPath id="a"><path fill="#fff" d="M0 0h24v24H0z"/></clipPath></defs></svg>
